X:1
T: All Hands Around
C:
R:Reel
I:speed 232
Q:232
K:G
M:4/4
L:1/8
|:G2Be d2Bd|gd Bd cA FA|G2 Be d2 Bd|dc AB GD EF|
G2Be d2Bd|gd Bd cA FA|GB Ac ((3Bcd) eg|fd cA G2G2:|
|:ba gb a2 fa|gf eg fd d2|ba gb a2 fa|gf ef d2 ga|
ba gb a2 fa|gf eg fd BA|GB Ac ((3Bcd) eg|fd cA G2G2:|
